svgs/sharp-light/radio-tuner.svg

<svg xmlns="http://www.w3.org/2000/svg" viewBox="0 0 512 512"><!--! Font Awesome Pro 6.6.0 by @fontawesome - https://fontawesome.com License - https://fontawesome.com/license (Commercial License) Copyright 2024 Fonticons, Inc. --><path d="M32 160l0 64 448 0 0-64L32 160zM0 240l0-80 0-24 0-8 0-4.5 12.1-3 480-120 7.8 31L114 128l366 0 32 0 0 32 0 320 0 32-32 0L32 512 0 512l0-32L0 240zM32 480l448 0 0-224L32 256l0 224zM80 320l128 0 16 0 0 32-16 0L80 352l-16 0 0-32 16 0zm16 64l96 0 16 0 0 32-16 0-96 0-16 0 0-32 16 0zm272-64a48 48 0 1 0 0 96 48 48 0 1 0 0-96zm80 48a80 80 0 1 1 -160 0 80 80 0 1 1 160 0z"/></svg>

<svg xmlns="http://www.w3.org/2000/svg" viewBox="0 0 512 512"><!--! Font Awesome Pro 6.5.2 by @fontawesome - https://fontawesome.com License - https://fontawesome.com/license (Commercial License) Copyright 2024 Fonticons, Inc. --><path d="M32 160v64H480V160H32zM0 240V160 136v-8-4.5l12.1-3 480-120 7.8 31L114 128H480h32v32V480v32H480 32 0V480 240zM32 480H480V256H32V480zM80 320H208h16v32H208 80 64V320H80zm16 64h96 16v32H192 96 80V384H96zm272-64a48 48 0 1 0 0 96 48 48 0 1 0 0-96zm80 48a80 80 0 1 1 -160 0 80 80 0 1 1 160 0z"/></svg>
